!!!COM: Jules Massenet
!!!CNT: Francais
!!!TXO: Francais
!!!OTL: "Beaux yeux que j'aime"
!!!LYR: Maquet
!!!OPR: 
!!!OPS: Op. 
!!!ONM: No.
!!!ENC: Emily Thomas
!!!YOR: CD Sheet Music French Art Songs, The Ultimate Collection
!!!YOR: CD Sheet Music, LLC 2003
!!!ODT: 1891/
!!NB: Vocal melody and text encoded.
**kern	**silbe
=1	=1
*clefG2	*
*k[f#c#]	*
*M4/4	*
*MM[Tre\s mode/re/.]	*
1r	.
=2	=2
1r	.
=3	=3
{8a	{Il
8dd	est
12cc	des
12dd	|
12b	e/-
4cc#	-toi-
8b	-les
8a	aux
=4	=4
4ee	cieux
[4dd	|
8dd]	|
8ff#	Qui
8ee	vous
8dd	res-
=5	=5
8dd	-sem-
8a	-blent,
8cc#	o\
8b	beaux
8a	yeux,
8f#	Beaux
8aq	yeux
8.g	|
16f#	que
=6	=6
2a	j'ai-
4e}	-me!}
4r	.
=7	=7
{8a	{El-
8b	-les
4a	ont
8ccn	votre
8b	e/-
8.a	-clat
16ee	joy-
=8	=8
[2dd	-eux,
8dd]}	|}
{8gg	{Vo-
8ff#	-tre
8ee	long
=9	=9
8dd	re-
8ee	-gard
8dd	se/-
8g	-ri-
8b-}	-eux,}
{8dd	{Vos
8ccn	lar-
8b-	-mes
=10	=10
2.a	-me^-
8a}	-me!..}
8r	.
=11	=11
1r	.
=12	=12
{8a	{El-
8dd	-les
12cc	ont
12dd	|
12b	ce
4cc#	char-
8b	-me
8a	si
=13	=13
4ee	doux
[4dd	|
8dd]	|
8ff#	Qui
8ee	cem-
8dd	-plit
=14	=14
8dd	nos
8a	coeurs
8cc#	vains
8b	et
8a	fous
8f#	D'un
8aq	trouble
8.g	|
16f#	ex-
=15	=15
2a	-tre^-
4e}	-me...}
4r	.
=16	=16
{8a	{Mais
8r	.
8a	el-
8a	-les
8ccn	bril-
8b	-lent
8.a	loin
16ee	de
=17	=17
[2dd#	nous...
8dd#]}	|}
{8aa	{Tou-
8gg	-jours
8ff#	he/-
=18	=18
8ff#	-las,
8ee	ain-
8b	-si
8g	que
8f#}	vous,}
{8g	{Beaux
8.cc#	yeux
16b	que
=19	=19
2f#	j'ai-
2e	|
=20	=20
4d}	-me!..}
4r	.
2r	.
=21	=21
1r	.
=22	=22
1r	.
=23	=23
8r	.
{8dd	{Il
8.cc#	est
16b	des
4cc#	lacs
12cc#	mys-
12b	-tr/0
12a	-ri-
=24	=24
4ee	-eux
[4dd	|
8dd]	|
8ff#	Qui
8ee	vous
8dd	res-
=25	=25
8dd	-sem-
8a	-blent,
8cc#	o^
8b	beaux
8a	yeux,
8f#	Beaux
8aq	yeux
8.g	|
16f#	que
=26	=26
2a	j'ai-
4e}	-me!}
4r	.
=27	=27
{8a	{Leurs
8b	flots
4a	purs
8ccn	et
8b	si-
8.a	-len-
16ee	-ci-
=28	=28
[2dd	-eux
8dd]}	|}
{8gg	{Ont
8ff#	vos
8ee	re-
=29	=29
8dd	-flots
8ee	ca-
8dd	-pri-
8g	-ci-
8b-}	-eux,}
{8dd	{Votre
8ccn	a-
8b-	-zur
=30	=30
2.a	me^-
8a}	-me!}
8r	.
=31	=31
1r	.
=32	=32
{8a	{Ja-
8dd	-mais
12cc#	ils
12dd	|
12b	-ne
4cc#	s'ou-
8.b	-vrent
16a	a\
=33	=33
4ee	nous
[4dd	|
8dd]	|
8ff#	Et
8ee	leur
8dd	at-
=34	=34
8dd	-trair
8a	sub-
8cc#	-til
8b	et
8a	doux
8f#	Reste
8.g	un
16f#	pro-
=35	=35
2a	-ble\-
4e}	-me...}
8r	.
{8a	{Ils
=36	=36
8.a	sont
16b	pro-
8a	-fonds,
8r	.
4ccn	fiers
8.a	et
16ee	ja-
=37	=37
[2dd#	-loux,
8dd#]}	|}
{8aa	{Im-
8gg	-pe/-
8ff#	-ne/-
=38	=38
8ff#	-tra-
8ee	-bles,
8b	com-
8g	-me
8f#}	vous,}
{8g	{Beaux
8.cc#	yeux
16b	que
=39	=39
2ff#	j'ai-
2ee	|
=40	=40
4dd}	-me!..}
4r	.
2r	.
==	==
*-	*-
